X:1
T:Suite No. 1
T:Suite No. 1 in A Minor
T:for solo violin
T:Johann Paul von Westhoff
C:Johann Paul von Westhoff
%%score ( 1 2 3 4 )
L:1/8
Q:1/4=60
M:4/4
K:C
V:1 treble nm="Violin" snm="Vln."
V:2 treble 
V:3 treble 
V:4 treble 
V:1
"^Allemande" e2 | e2- e/>g/f/>e/ f2 f2 | e2 A2 e2- e/>g/f/>g/ | e2- e/>g/f/>e/ ab/a/ ^g>g | %4
 a3 e/f/ gg/g/ ff/f/ | e3 c/c/ BB/B/ AF/F/ | EG/A/ B^F/G/ AE/F/ Gg/a/ | %7
 b^f/g/ a^d/e/ f2 f/>a/g/>f/ | g2 ^f/>a/g/>f/ ggf>f | e6 :: e2 | e2 x2 x2 e2 | ea/g/ f2 f2 fg/f/ | %13
 ed/A/ B>B[Q:1/4=35]"^Adagio" c2- c/>G/A/>B/ | c2- c/>B/c/>d/ e2- e/>B/c/>d/ | %15
 e2- e/>d/e/>f/ g3[Q:1/4=60]"^Allegro" g/f/ | e2 Be/d/ eB/A/ eb/a/ | ^ge/d/ ea/=g/ fB/A/ e2 | %18
 ed/c/ Bc B3 A/^G/ | A6 :|[M:3/2][Q:1/4=240]"^Courante" A4 | A4- A2 B2 c2 d2 | e8 e2 a2 | %23
 f8 e2 d2 | c4 B6 A2 | A4 A,2 e2 ^f2 ^g2 | a12 | g12 | f2 e2 d2 c2 B2 A2 | B2 d2 e2 f2 g2 f2 | %30
 e2 e2 ^f2 g2 a2 g2 | ^f2 f2 ^g2 a2 b2 a2 | =g12 | e2 e2 d2 c2 B2 A2 | e12 | e2 e2 d2 c2 B2 A2 | %36
 e8 :: e4 | e2 b2 ^g2 ^f2 e2 d2 | e12 | e2 a2 f2 e2 d2 c2 | B12 | B2 g2 f2 d2 e2 f2 | e12 | e12 | %45
 f2 g2 a2 b2 c'2 d'2 | e'2 d'2 e'2 b2 c'2 d'2 | c'2 b2 c'2 a2 b2 c'2 | d'2 c'2 d'2 a2 b2 c'2 | %49
 b2 a2 b2 g2 a2 b2 | c'2 b2 c'2 ^f2 ^g2 a2 | ^g2 ^f2 g2 e2 f2 g2 | a2 b2 ^g2 b2 a2 g2 | a8 :| %54
[M:3/1][Q:1/4=160]"^Sarabande" e8 f16 | ^f8 g16 | ^g8 a16 | a12 ^g4 a8 | =g8 a16 | e8 f16 | %60
S f8 _e8 d8 | B12 B4 c8!D.S.! :: e8 e16 | e8 e16 | g8 ^f8 e8 | e12 ^d4 e8 | g8 ^g16 | a8 f16 | %68
 e16 ^f8 | e12 d4 ^c8 :|[M:9/4][Q:1/4=300]"^Gigue" a4 ^g2 =g4 ^f2 =f4 | %71
 e2 c2 d2 e2 B2 c2 d2 A2 B2 | c2 x16 | x2 g2 a2 b2 ^f2 g2 a2 e2 ^f2 | g2 B2 c2 d2 A2 B2 ^c2 A2 d2 | %75
 d4 ^c2 d2 d4 c2 =c4 | B2 _B4 A2 F2 G2 A2 E2 F2 | G2 D2 E2 F2 c2 d2 e2 B2 c2 | %78
 d2 A2 B2 c2 g2 a2 b2 ^f2 g2 | a2 e2 g2 ^f4 e2 e4 ^d2 | e2 :: e4 f2 ^f4 g2 ^g4 | %82
 a2 c2 B2 A2 d2 c2 B2 e2 d2 | c2 x16 | x2 F2 E2 D2 G2 F2 E2 A2 G2 | F2 x16 | %86
 x2 g2 f2 e2 a2 g2 ^f2 b2 a2 | g2 c2 B2 A2 d2 c2 B2 e2 d2 | c2 F2 E2 D2 G2 F2 E2 A2 G2 | %89
 F2 d2 c2 B2 e2 d2 c2 f2 e2 | ^f2 b2 a2 ^g2 e2 a2 a4 g2 | a2 :| %92
V:2
 x2 | c2- c/>e/d/>c/ dD/E/ FF/G/ | AA,/B,/ CC/D/ E2 x2 | c2- c/>e/d/>c/ B3 d | %4
 ^c3 =c/d/ eB/^c/ dA/B/ | c3 E/^F/ GD/E/ =FA,/B,/ | C2 D2 C2 B,2 | d2 ^c2 ^d2 B2 | B2 B2 A^A B2 | %9
 e6 :: x2 | c2 x2 x2 c2 | c2 d2 d2 de/d/ | c2 F2 E2 x2 | A2- A/>G/A/>B/ c2- c/>G/A/>B/ | %15
 c2- c/>B/c/>d/ e3 e/d/ | c2 x2 c2 B2 | B2 c2 d2 B2 | A2 ^GA E4 | A6 :|[M:3/2] A4 | A4 x8 | B8 A4 | %23
 d8 B4 | A,2 D2 E8 | A4 x8 | c12 | c12 | d8 x4 | G8 B4 | c8 ^c4 | d8 ^d4 | E2 E2 D2 C2 B,2 A,2 | %33
 B12 | ^G2 E2 D2 C2 B,2 A,2 | B12 | B8 :: x4 | B12 | A2 F2 E2 D2 C2 B,2 | A12 | %41
 G2 E2 D2 C2 B,2 A,2 | D12 | c12 | E2 F2 G2 A2 B2 c2 | d12 | ^g12 | e12 | ^f12 | d12 | e12 | B12 | %52
 B12 | ^c8 :|[M:3/1] c8 d16 | B24 | d16 c8 | B16 ^c8 | e8 c16 | A24 | d8 x16 | F16 E8 :: c8 B16 | %63
 c8 B16 | e8 B12 c4 | A16 B8 | e8 d16 | ^c8 d16 | B8 c8 B8 | B16 x8 :|[M:9/4] x16 | %71
 x2 A4 ^G2 =G4 ^F2 =F4 | E2 E4 ^D2 =D4 ^C2 =C4 | B,2 e4 ^d2 =d4 ^c2 =c4 | B2 G4 ^F2 =F4 E4 D2 | %75
 E6 D2 x4 x6 | x8 D4 ^C2 =C4 | B,2 _B,4 A,2 A4 ^G2 =G4 | ^F2 =F4 E2 e4 ^d2 =d4 | %79
 ^c2 =c4 ^d4 B2 A4 x2 | E2 :: x16 | x2 E4 F2 ^F4 G2 ^G4 | A2 A4 _B2 =B4 c2 ^c4 | %84
 d2 A,4 _B,2 =B,4 C2 ^C4 | D2 D4 _E2 =E4 F2 ^F4 | G2 B4 c2 ^c4 d2 ^d4 | e2 E4 F2 ^F4 G2 ^G4 | %88
 A2 A,4 _B,2 =B,4 C2 ^C4 | D2 ^F4 G2 ^G4 A2 ^c4 | d2 ^d4 e4 c2 B6 | ^c2 :| %92
V:3
 x2 | A2 x2 x2 d2 | c2 E2 B2 e/>e/d/>e/ | E2 x2 x4 | E2 x2 x4 | x8 | x8 | D2 ^F2 F2 x2 | E2 x2 x4 | %9
 x6 :: x2 | E2- E/>D/E/>F/ Eg/f/ E2 | E2 DD/C/ G2 G2 | E2 G,2 C2- C/>E/F/>G/ | x8 | x8 | %16
 E2 E2 E2 ^G2 | E2 E2 D2 ^GE/D/ | E2 x2 x4 | x6 :|[M:3/2] x4 | x12 | ^G2 ^F2 E2 D2 C4 | x8 E4 | %24
 E4 x8 | x12 | E12 | x12 | D12 | x8 D4 | E8 E4 | D8 ^F4 | B12 | E12 | B12 | E12 | ^G8 :: x4 | %38
 ^G12 | c12 | E12 | x12 | G,12 | E12 | c12 | D12 | B12 | A12 | A12 | G12 | G12 | E12 | E12 | E8 :| %54
[M:3/1] A24 | ^D8 E16 | E8 F8 D8 | E16 E8 | G8 F16 | E8 d16 | G16 x8 | G,16 C8 :: E8 E16 | %63
 E8 ^G16 | A8 ^F8 G8 | ^F16 ^G8 | E8 E16 | E8 A16 | E16 ^F8 | ^G16 E8 :|[M:9/4] x16 | x18 | x18 | %73
 x18 | x18 | x18 | x18 | x18 | x18 | x6 ^F4 G2 F4 x2 | B2 :: x16 | x18 | x18 | x18 | x18 | x18 | %87
 x18 | x18 | x18 | x18 | E2 :| %92
V:4
 x2 | x8 | x8 | C2 x2 E4 | A,2 x2 x4 | x8 | x8 | G,2 A,2 B,2 x2 | x8 | x6 :: x2 | %11
 C2- C/>B,/C/>D/ Ce/d/ CC/B,/ | A,2 x2 B,B,/A,/ G,2 | A,2 x2 x4 | x8 | x8 | CB,/A,/ ^G,2 A,2 x2 | %17
 x2 A,2 x4 | CD x2 x4 | x6 :|[M:3/2] x4 | x12 | x8 E4 | D2 C2 B,2 A,2 ^G,4 | x12 | x12 | %26
 A,2 B,2 C2 D2 E2 F2 | E2 D2 C2 B,2 A,2 G,2 | x12 | x8 G,4 | C8 A,4 | x8 B,4 | x12 | ^G,12 | x12 | %35
 ^G,12 | x8 :: x4 | x12 | x12 | A,12 | x12 | x12 | C2 G,2 A,2 B,2 C2 D2 | x12 | x12 | E12 | x12 | %48
 D12 | G,12 | C12 | x12 | x12 | A,8 :|[M:3/1] x24 | x24 | x24 | x16 A,8 | C8 x16 | ^C8 D16 | %60
 B,8 C8 F8 | x24 :: C8 ^G,16 | A,8 E16 | ^C8 ^D8 G,4 A,4 | B,16 E8 | x24 | A,8 D16 | ^G,8 A,8 ^D8 | %69
 E16 A,8 :|[M:9/4] x16 | x18 | x18 | x18 | x18 | x18 | x18 | x18 | x18 | x6 B,4 B,2 B,4 x2 | x2 :: %81
 x16 | x18 | x18 | x18 | x18 | x18 | x18 | x18 | x18 | x18 | A,2 :| %92

